X:1
T:Title
%%score { 1 | 2 }
L:1/8
M:3/4
K:Bb
V:1 treble nm="Grand Piano"
V:2 bass 
V:1
 z2 z2[Q:1/4=100] [DF]2 | [DF]4 [EG]>[DF] | [DF] [DB]3 F>F | G [GB]3 [EG]2 | [DF]4 [DF]2 | %5
 [DF]4 [EG]>[DF] | [DF] [DB]3 [FB]>c | d4 [FB]>[FB] | [Fc]4 [DB]2 | [Fd]4 [Fd]>[Ec] | %10
 [DB] [DB]3 [Fc]>[FB] | [EG]4 [GB]>[EG] | [DF]4 [DF]2 | [DF]4 [EG]>[DF] | [DF] [DB]3 [FB]>[Gc] | %15
 d4 c>c | [DB]6 | [Fc]4 [A,F]>[A,F] | [B,FB]6 | [Fd]4 [DGB]>[DGB] | [FAc]4 [DFB]2 | %21
 [Fd]4 [Fc]>[FB] | [Gc] [GB]3 G>G | F4 B>c |[M:2/4] [DB]4 |] %25
V:2
 z2 z2 [B,,B,]2 | [B,,B,]4 [B,,B,]>[B,,B,] | [B,,B,] [B,,B,]3 [D,B,]2 | [E,B,E] [E,B,]3 [E,B,]2 | %4
 [B,,B,]4 [B,,B,]2 | [B,,B,]4 [B,,B,]>[B,,B,] | [B,,B,] [B,,B,]3 [D,B,]>[K:treble][F,A,F] | %7
 [B,F]4[K:bass] [D,B,]>[D,B,] | [F,A,]4 [B,,B,]2 | [B,,B,]4 [B,,B,]>[B,,B,] | %10
 [B,,B,] [B,,B,]3 [C,A,]>[D,B,] | [E,B,]4 [E,B,]>[E,B,] | [B,,B,]4 [B,,B,]2 | %13
 [B,,B,]4 [B,,B,]>[B,,B,] | [B,,B,] [B,,B,]3 [D,B,]>[E,B,] | [F,B,F]4 [F,A,E]>[F,A,E] | [B,,B,]6 | %17
 [F,A,]4 E,>E, | D,6 | B,4 G,>G, | F,4 B,,2 | [B,,B,]4 [C,A,]>[D,B,] | %22
 [E,B,] [E,B,]3 [E,B,E]>[E,B,E] | [F,B,D]4 [F,D]>[F,E] |[M:2/4] [B,,F,]4 |] %25

